X: 135
T: Cheshire rowling Hornpipe
M:6/4
L:1/4
S: 8: MCJLSH3 http://www.cpartington.plus.com/links/Walsh.abc
Z: Pete Stewart 2004
B: Walsh "Third Book of the most Celebrated jiggs, Lancashire hornpipes, ..."
K:Dmin
FDFE^CE | D>E F/D/ECc | C2FE/F/GE | FDFE^CE | D3A>GF/E/ | D2FE/F/GE ||
AFDd>c=B | c3G>FE/D/ | C2FE/F/GE | D>d^c=Bed/c/ | d3A>GF/E/ | D2FE/F/GE ||
fafege | cegcAF | C2FE/F/GE | a/g/f/e/ dg/f/e/d/^c | d3AFD | D/E/FDE/F/GE ||

%%sep 1 1 500
%%sep 1 1 500
